X:21
T:Pach-pi
R:dance
M:C|
K:D
A2A2B2A2 | dcBc d2e2 | A2A2B2A2 | dcBc d4 :| 
e2>g2 f2e2 | d2B2 B2A2 | e2>g2 f2e2 | dcBc d4 :| 

